static/assets/images/networks/sei.svg

<svg width="256" height="256" viewBox="0 0 256 256" fill="none" xmlns="http://www.w3.org/2000/svg">
<path fill-rule="evenodd" clip-rule="evenodd" d="M223.342 213.407C199.906 239.551 165.874 256 128 256C97.7346 256 69.9226 245.496 48.0107 227.935L73.5162 206.087C84.8332 196.393 101.833 197.527 111.759 208.639C129.958 229.014 160.952 231.546 182.223 214.397L184.442 212.608C196.059 203.241 212.43 203.93 223.342 213.407ZM237.775 193.866C218.29 178.09 189.69 177.684 169.43 194.018L167.21 195.808C155.855 204.962 139.31 203.61 129.594 192.734C111 171.918 79.1559 169.793 57.9561 187.952L30.7642 211.245C14.1217 191.824 3.19689 167.359 0.59856 140.459L4.04198 137.61C15.3799 126.98 33.1456 127.368 44.0081 138.482C62.6884 157.596 92.7667 159.614 113.837 143.166L130.485 130.17C142.384 120.882 159.203 121.332 170.587 131.242L203.001 159.459L218.705 141.45L186.291 113.233C166.271 95.8042 136.692 95.0136 115.768 111.347L99.1187 124.343C87.6509 133.295 71.2796 132.197 61.1121 121.794C45.0503 105.36 20.545 104.046 0.819851 113.432C8.05127 49.5995 62.2333 0 128 0C161.031 0 191.14 12.5114 213.846 33.0538C205.816 35.1347 197.865 38.8692 191.237 44.7383L189.102 46.6283C178.182 56.2972 161.592 55.7096 151.385 45.2927C131.849 25.3564 99.9401 24.7017 79.602 43.82L49.8244 71.8112L66.2054 89.2085L95.9831 61.2174C106.84 51.0114 123.874 51.361 134.303 62.0035C153.424 81.5169 184.501 82.6176 204.957 64.5055L207.092 62.6155C214.592 55.975 224.721 54.0466 233.836 55.9863L233.836 55.9871C247.823 76.5033 256 101.297 256 128C256 152.089 249.346 174.624 237.775 193.866Z" fill="#C91B1B"/>
<path d="M99.1187 124.343C87.6509 133.295 71.2796 132.197 61.1121 121.794C45.0503 105.36 20.545 104.046 0.819851 113.432C0.278232 118.213 0 123.074 0 128C0 132.203 0.202597 136.359 0.59856 140.459L4.04198 137.61C15.3799 126.98 33.1456 127.368 44.0081 138.482C62.6884 157.596 92.7667 159.614 113.837 143.166L130.485 130.17C142.384 120.882 159.203 121.332 170.587 131.242L203.001 159.459L218.705 141.45L186.291 113.233C166.271 95.8042 136.692 95.0136 115.768 111.347L99.1187 124.343Z" fill="white"/>
<path d="M223.342 213.407C228.743 207.381 233.582 200.84 237.775 193.866C218.29 178.09 189.69 177.684 169.43 194.018L167.21 195.808C155.855 204.962 139.31 203.61 129.594 192.734C111 171.918 79.1559 169.793 57.9561 187.952L30.7642 211.245C35.9785 217.33 41.7541 222.92 48.0107 227.935L73.5162 206.087C84.8332 196.393 101.833 197.527 111.759 208.639C129.958 229.014 160.952 231.546 182.223 214.397L184.442 212.608C196.059 203.241 212.43 203.93 223.342 213.407Z" fill="white"/>
<path d="M207.092 62.6155C214.592 55.975 224.721 54.0466 233.836 55.9863L233.836 55.9871C228.097 47.5678 221.378 39.8688 213.846 33.0538C205.816 35.1347 197.865 38.8692 191.237 44.7383L189.102 46.6283C178.182 56.2972 161.592 55.7096 151.385 45.2927C131.849 25.3564 99.9401 24.7017 79.602 43.82L49.8244 71.8112L66.2054 89.2085L95.9831 61.2174C106.84 51.0114 123.874 51.361 134.303 62.0035C153.424 81.5169 184.501 82.6176 204.957 64.5055L207.092 62.6155Z" fill="white"/>
</svg>

<svg xmlns="http://www.w3.org/2000/svg" fill="none" viewBox="0 0 256 256"><path fill="#C91B1B" fill-rule="evenodd" d="M223.342 213.407C199.906 239.551 165.874 256 128 256c-30.265 0-58.077-10.504-79.99-28.065l25.506-21.848c11.317-9.694 28.317-8.56 38.243 2.552 18.199 20.375 49.193 22.907 70.464 5.758l2.219-1.789c11.617-9.367 27.988-8.678 38.9.799m14.433-19.541c-19.485-15.776-48.085-16.182-68.345.152l-2.22 1.79c-11.355 9.154-27.9 7.802-37.616-3.074-18.594-20.816-50.438-22.941-71.638-4.782l-27.192 23.293C14.122 191.824 3.197 167.359.6 140.459l3.443-2.849c11.338-10.63 29.104-10.242 39.966.872 18.68 19.114 48.759 21.132 69.829 4.684l16.648-12.996c11.899-9.288 28.718-8.838 40.102 1.072l32.414 28.217 15.704-18.009-32.414-28.217c-20.02-17.429-49.599-18.22-70.523-1.886l-16.65 12.996c-11.467 8.952-27.838 7.854-38.006-2.549C45.05 105.36 20.545 104.046.82 113.432 8.05 49.6 62.233 0 128 0c33.031 0 63.14 12.511 85.846 33.054-8.03 2.08-15.981 5.815-22.609 11.684l-2.135 1.89c-10.92 9.67-27.51 9.082-37.717-1.335-19.536-19.937-51.445-20.591-71.783-1.473L49.824 71.811l16.381 17.397 29.778-27.99c10.857-10.207 27.891-9.857 38.32.785 19.121 19.514 50.198 20.615 70.654 2.502l2.135-1.89c7.5-6.64 17.629-8.568 26.744-6.629v.001C247.823 76.503 256 101.297 256 128c0 24.089-6.654 46.624-18.225 65.866" clip-rule="evenodd"/><path fill="#fff" d="M99.119 124.343c-11.468 8.952-27.84 7.854-38.007-2.549C45.05 105.36 20.545 104.046.82 113.432.278 118.213 0 123.074 0 128c0 4.203.203 8.359.599 12.459l3.443-2.849c11.338-10.63 29.104-10.242 39.966.872 18.68 19.114 48.759 21.132 69.829 4.684l16.648-12.996c11.899-9.288 28.718-8.838 40.102 1.072l32.414 28.217 15.704-18.009-32.414-28.217c-20.02-17.429-49.599-18.22-70.523-1.886zm124.223 89.064a128.5 128.5 0 0 0 14.433-19.541c-19.485-15.776-48.085-16.182-68.345.152l-2.22 1.79c-11.355 9.154-27.9 7.802-37.616-3.074-18.594-20.816-50.438-22.941-71.638-4.782l-27.192 23.293a129 129 0 0 0 17.247 16.69l25.505-21.848c11.317-9.694 28.317-8.56 38.243 2.552 18.199 20.375 49.193 22.907 70.464 5.758l2.219-1.789c11.617-9.367 27.988-8.678 38.9.799m-16.25-150.791c7.5-6.641 17.629-8.57 26.744-6.63v.001a128.7 128.7 0 0 0-19.99-22.933c-8.03 2.08-15.981 5.815-22.609 11.684l-2.135 1.89c-10.92 9.67-27.51 9.082-37.717-1.335-19.536-19.937-51.445-20.591-71.783-1.473L49.824 71.811l16.381 17.397 29.778-27.99c10.857-10.207 27.891-9.857 38.32.785 19.121 19.514 50.198 20.615 70.654 2.502z"/></svg>
